dist/images/ico-chief_hat.svg

<svg xmlns="http://www.w3.org/2000/svg" xmlns:xlink="http://www.w3.org/1999/xlink" preserveAspectRatio="none" width="62" height="62" viewBox="0 0 62 62"><defs><path fill="#c39c4d" d="M43.75 10.2q-.7 0-.7.25-.6-3.3-3.65-6.2-3-3.15-10.3-2.9-7.5.25-10.75 5.7-2.55 3.75-2.9 4.1-2.55-.95-4.65-.7-4.6.35-7.85 7.25-3.5 6.9 2.65 10.8 2.7 1.55 5.85 2.05v18.4q0 .25.1.35v10.05H48V49.3q.15-.1.15-.35v-19q6.4-.5 9.2-4.35 3.25-4.4-.15-10.55-2.75-5-9.3-5-2.8.15-4.15.15m0 1.45q1.35 0 4.15-.1 5.55 0 8 4.2 2.9 5.2.2 9-2.65 3.5-8.7 3.75-.35 0-.5.25-.2.2-.2.45v19.75h-8v-9.8h-3.15v9.8H31.4v-13.7h-3.15v13.7H25v-9.8h-2.9v9.8h-9.2V29.8q0-.25-.15-.45-.25-.25-.45-.25-3.3-.25-5.95-1.85-5-3.15-2.05-8.95 2.9-6.05 6.65-6.4 1.8-.25 4.1.7h.25q.95.25 4.25-4.7v-.15q3-4.7 9.55-4.95 6.55-.25 9.35 2.45Q41.1 7.9 41.6 10.9q.1.75 2.15.75z" id="a"/></defs><use xlink:href="#a"/></svg>

<svg xmlns="http://www.w3.org/2000/svg" version="1.1" xmlns:xlink="http://www.w3.org/1999/xlink" preserveAspectRatio="none" x="0px" y="0px" width="62px" height="62px" viewBox="0 0 62 62">
<defs>
<g id="Layer0_0_FILL">
<path fill="#c39c4d" stroke="none" d="
M 43.75 10.2
Q 43.05 10.2 43.05 10.45 42.45 7.15 39.4 4.25 36.4 1.1 29.1 1.35 21.6 1.6 18.35 7.05 15.8 10.8 15.45 11.15 12.9 10.2 10.8 10.45 6.2 10.8 2.95 17.7 -0.55 24.6 5.6 28.5 8.3 30.05 11.45 30.55
L 11.45 48.95
Q 11.45 49.2 11.55 49.3
L 11.55 59.35 48 59.35 48 49.3
Q 48.15 49.2 48.15 48.95
L 48.15 29.95
Q 54.55 29.45 57.35 25.6 60.6 21.2 57.2 15.05 54.45 10.05 47.9 10.05 45.1 10.2 43.75 10.2
M 43.75 11.65
Q 45.1 11.65 47.9 11.55 53.45 11.55 55.9 15.75 58.8 20.95 56.1 24.75 53.45 28.25 47.4 28.5 47.05 28.5 46.9 28.75 46.7 28.95 46.7 29.2
L 46.7 48.95 38.7 48.95 38.7 39.15 35.55 39.15 35.55 48.95 31.4 48.95 31.4 35.25 28.25 35.25 28.25 48.95 25 48.95 25 39.15 22.1 39.15 22.1 48.95 12.9 48.95 12.9 29.8
Q 12.9 29.55 12.75 29.35 12.5 29.1 12.3 29.1 9 28.85 6.35 27.25 1.35 24.1 4.3 18.3 7.2 12.25 10.95 11.9 12.75 11.65 15.05 12.6 15.2 12.6 15.3 12.6 16.25 12.85 19.55 7.9
L 19.55 7.75
Q 22.55 3.05 29.1 2.8 35.65 2.55 38.45 5.25 41.1 7.9 41.6 10.9 41.7 11.65 43.75 11.65 Z"/>
</g>
</defs>

<g transform="matrix( 1, 0, 0, 1, 0,0) ">
<use xlink:href="#Layer0_0_FILL"/>
</g>
</svg>
